favicon.svg

<svg width="32" height="32" viewBox="0 0 32 32" fill="none" xmlns="http://www.w3.org/2000/svg">
<g clip-path="url(#clip0_2028_5)">
<rect width="32" height="32" fill="white"/>
<rect x="0.997937" y="1.00206" width="30" height="30" rx="7" transform="rotate(0.118097 0.997937 1.00206)" fill="#FFAE03" stroke="black" stroke-width="2"/>
<path d="M4.86222 22V19.912H6.51822V11.488H4.86222V9.4H10.0462C11.7382 9.4 13.0222 9.832 13.8982 10.696C14.7862 11.548 15.2302 12.82 15.2302 14.512V16.888C15.2302 18.58 14.7862 19.858 13.8982 20.722C13.0222 21.574 11.7382 22 10.0462 22H4.86222ZM8.89422 19.84H10.0822C11.0422 19.84 11.7442 19.588 12.1882 19.084C12.6322 18.58 12.8542 17.872 12.8542 16.96V14.44C12.8542 13.516 12.6322 12.808 12.1882 12.316C11.7442 11.812 11.0422 11.56 10.0822 11.56H8.89422V19.84ZM18.2905 22V9.4H23.4745C24.2665 9.4 24.9625 9.562 25.5625 9.886C26.1745 10.198 26.6485 10.642 26.9845 11.218C27.3325 11.794 27.5065 12.478 27.5065 13.27V13.522C27.5065 14.302 27.3265 14.986 26.9665 15.574C26.6185 16.15 26.1385 16.6 25.5265 16.924C24.9265 17.236 24.2425 17.392 23.4745 17.392H20.6665V22H18.2905ZM20.6665 15.232H23.2405C23.8045 15.232 24.2605 15.076 24.6085 14.764C24.9565 14.452 25.1305 14.026 25.1305 13.486V13.306C25.1305 12.766 24.9565 12.34 24.6085 12.028C24.2605 11.716 23.8045 11.56 23.2405 11.56H20.6665V15.232Z" fill="black"/>
</g>
<defs>
<clipPath id="clip0_2028_5">
<rect width="32" height="32" fill="white"/>
</clipPath>
</defs>
</svg>

<svg xmlns="http://www.w3.org/2000/svg" width="32" height="32" fill="none"><g clip-path="url(#a)"><rect width="30" height="30" x=".998" y="1.002" fill="#FFAE03" stroke="#000" stroke-width="2" rx="7" transform="rotate(.118 .998 1.002)"/><path fill="#000" d="M4.862 22v-2.088h1.656v-8.424H4.862V9.4h5.184q2.538 0 3.852 1.296 1.332 1.278 1.332 3.816v2.376q0 2.538-1.332 3.834Q12.584 22 10.046 22zm4.032-2.16h1.188q1.44 0 2.106-.756t.666-2.124v-2.52q0-1.386-.666-2.124-.666-.756-2.106-.756H8.894zM18.291 22V9.4h5.183q1.188 0 2.089.486a3.4 3.4 0 0 1 1.422 1.332q.522.864.521 2.052v.252q0 1.17-.54 2.052a3.63 3.63 0 0 1-1.44 1.35q-.9.468-2.052.468h-2.808V22zm2.375-6.768h2.575q.846 0 1.367-.468.522-.468.523-1.278v-.18q0-.81-.523-1.278-.522-.468-1.367-.468h-2.575z"/></g><defs><clipPath id="a"><path fill="#fff" d="M0 0h32v32H0z"/></clipPath></defs></svg>
